X:1
T:Title
%%score ( 1 2 ) 3
L:1/8
Q:1/4=107
M:4/4
K:E
V:1 treble nm="Grand Piano, Soprano"
V:2 treble 
V:3 bass nm="Choir Pad, The Golden Home-Lights"
V:1
 [EG][FA] [GB]2 [Ac]2 [GB]2 | [EG]2 [EG]2 [DF]2 [DF]2 | [DF][EG] [FA]2 [DF]2 [EG]2 | [E^A]2 [DB]6 | %4
w: By~Walter~Powell~Ganus * * * *||||
 [EG][FA] [GB]2 [Ac]2 [GB]2 | [EG]2 [EG]2 [DF]2 [DB]2 | [=DB]2 [CA]2 [CF]2 [B,E]2 | [B,D]2 [B,E]6 | %8
w: ||||
 z2 e6 | .d2 B6 | [EG]2 [DF]2 [DF]2 [EG]2 | [E^A]2 [DB]6 | z2 e6 | .d2 B6 | %14
w: ||||||
 [=DB]2 [CA]2 [CF]2 [B,E]2 | [B,D]2 [CE]6- | [CE]2 z2 z4 |] %17
w: |||
V:2
 x8 | x8 | x8 | x8 | x8 | x8 | x8 | x8 | [AB]2 G2 A2 G2 | G-[Gc] E2 D2 E2 | x8 | x8 | %12
 [AB]2 G2 A2 G2 | G-[Gc] E2 D2 E2 | x8 | x8 | x8 |] %17
V:3
 [E,B,]2 [E,E]2 [E,E]2 [E,E]2 | [E,B,]2 [B,,B,]2 [B,,B,]2 [B,,B,]2 | %2
 [B,,B,]2 [B,,B,]2 [B,,B,]2 [E,B,]2 | [C,F,]2 [B,,F,]6 | [E,B,]2 [E,E]2 [E,E]2 [E,E]2 | %5
 [E,B,]2 [B,,B,]2 [B,,B,]2 [B,,G,]2 | [E,G,]2 [A,,A,]2 [A,,A,]2 [B,,G,]2 | [B,,F,]2 [E,G,]6 | %8
 [B,D]2 [E,E]2 [E,C]2 [E,B,]2 | [E,B,]2 [E,G,]2 [F,A,]2 [G,B,]2 | %10
 [E,B,]2 [B,,B,]2 [B,,B,]2 [E,B,]2 | [C,F,]2 [B,,F,]6 | [B,D]2 [E,E]2 [E,C]2 [E,B,]2 | %13
 [E,B,]2 [E,G,]2 [F,A,]2 [G,B,]2 | [E,G,]2 [A,,A,]2 [A,,A,]2 [B,,G,]2 | [B,,F,]2 [E,G,]6- | %16
 [E,G,]2 z2 z4 |] %17

